X:0477
T:Miss Murray's Jig.
M:6/8
L:1/8
Q:3/8=120
I: :: ::
Z:Jack Campin * www.campin.me.uk * 2009
K:C
fcA AcA|fcA  Aag     |fcA AcA|_B2G (B/c/de) |
fcA AcA|fcA  Afg     |afd gec| dBG  Bcd    ::
c2g gea|gec (e/f/g).e|c2g gfe| dBG (B/c/d).B| 
c2g gea|gec  efg     |afd gec| dBG  Bcd    :|
<end>
<start>
